X:1
T:Savannah (Robinson), 10.10.10.10
T:Savannah (Robinson), 10.10.10.10
T:Anonymous, 1881
T:Public Domain Courtesy of the Cyber Hymnal™
C:Anonymous, 1881
Z:Public Domain
Z:Courtesy of the Cyber Hymnal™
%%score ( 1 2 ) ( 3 4 )
L:1/8
Q:1/4=100
M:2/4
K:A
V:1 treble 
V:2 treble 
V:3 bass 
V:4 bass 
V:1
 E2 | [EA]2 [EB]2 | [Ec][Ec] [Ec][Ee] | [Fd]2 [Ec]2 | [EB]3 E | [EA]2 [EB]2 | [Ec][Ec] [Ec][Ee] | %7
 [Fd]2 B2 | [CA]3 [CA] | [EB]2 [Ed]2 | [Ec][Ec] [Ec][EB] | [Ec]2 [A^d]2 | [Ge]3 E | [EA]2 [EB]2 | %14
 [Ec][Ec] [Ec][Ee] | [Ec]2 B2 | [CA]2 |] %17
V:2
 E2 | x4 | x4 | x4 | x3 E | x4 | x4 | x2 (ED) | x4 | x4 | x4 | x4 | x3 E | x4 | x4 | x2 (ED) | %16
 x2 |] %17
V:3
 E,2 | [C,A,]2 [E,G,]2 | A,[E,A,] [C,A,][A,,C] | [D,A,]2 [A,,A,]2 | [E,G,]3 E, | [C,A,]2 [E,G,]2 | %6
 A,[E,A,] [C,A,][A,,C] | [D,A,]2 [E,G,]2 | [A,,A,]3 [A,,A,] | [E,G,]2 [E,B,]2 | A,A, A,[G,B,] | %11
 A,2 [F,B,]2 | [E,B,]3 [E,B,] | [C,A,]2 [E,G,]2 | A,[E,A,] [C,A,][A,,C] | [D,A,]2 [E,G,]2 | %16
 [A,,A,]2 |] %17
V:4
 E,2 | x4 | A, x3 | x4 | x3 E, | x4 | A, x3 | x4 | x4 | x4 | A,A, A, x | A,2 x2 | x4 | x4 | A, x3 | %15
 x4 | x2 |] %17

